openmetadata-ui/src/main/resources/ui/src/assets/svg/delete-white.svg

<svg width="14" height="15" viewBox="0 0 14 15" fill="none" xmlns="http://www.w3.org/2000/svg">
<path d="M11.4922 3.40625H9.73438V3.05469C9.73438 2.47313 9.26124 2 8.67969 2H5.86719C5.28563 2 4.8125 2.47313 4.8125 3.05469V3.40625H3.05469C2.47313 3.40625 2 3.87938 2 4.46094C2 4.928 2.30527 5.32487 2.72668 5.46315L3.35375 13.0329C3.39891 13.5752 3.86059 14 4.40478 14H10.1421C10.6863 14 11.148 13.5752 11.1932 13.0327L11.8202 5.46312C12.2416 5.32487 12.5469 4.928 12.5469 4.46094C12.5469 3.87938 12.0737 3.40625 11.4922 3.40625ZM5.51562 3.05469C5.51562 2.86084 5.67334 2.70312 5.86719 2.70312H8.67969C8.87354 2.70312 9.03125 2.86084 9.03125 3.05469V3.40625H5.51562V3.05469ZM10.4924 12.9745C10.4774 13.1553 10.3235 13.2969 10.1421 13.2969H4.40478C4.2234 13.2969 4.06951 13.1553 4.05448 12.9747L3.43658 5.51562H11.1103L10.4924 12.9745ZM11.4922 4.8125H3.05469C2.86084 4.8125 2.70312 4.65479 2.70312 4.46094C2.70312 4.26709 2.86084 4.10938 3.05469 4.10938H11.4922C11.686 4.10938 11.8438 4.26709 11.8438 4.46094C11.8438 4.65479 11.686 4.8125 11.4922 4.8125Z" fill="#37352f"/>
<path d="M5.99251 12.2205L5.64095 6.54857C5.62893 6.35477 5.46118 6.20737 5.26832 6.21944C5.07451 6.23146 4.92716 6.39829 4.93916 6.59207L5.29072 12.264C5.30228 12.4504 5.45706 12.5938 5.64128 12.5938C5.84488 12.5938 6.005 12.4223 5.99251 12.2205Z" fill="#37352f"/>
<path d="M7.39941 6.21875C7.20526 6.21875 7.04785 6.37616 7.04785 6.57031V12.2422C7.04785 12.4363 7.20526 12.5938 7.39941 12.5938C7.59357 12.5938 7.75098 12.4363 7.75098 12.2422V6.57031C7.75098 6.37616 7.59357 6.21875 7.39941 6.21875Z" fill="#37352f"/>
<path d="M9.53054 6.21944C9.33718 6.20741 9.16991 6.35476 9.15791 6.54857L8.80635 12.2204C8.79437 12.4142 8.94172 12.581 9.1355 12.5931C9.3294 12.6051 9.49613 12.4576 9.50813 12.2639L9.85969 6.59207C9.87169 6.39826 9.72434 6.23144 9.53054 6.21944Z" fill="#37352f"/>
</svg>

<svg xmlns="http://www.w3.org/2000/svg" width="14" height="15" fill="none"><path fill="#37352f" d="M11.492 3.406H9.734v-.351C9.734 2.473 9.261 2 8.68 2H5.867c-.581 0-1.054.473-1.054 1.055v.351H3.054a1.056 1.056 0 0 0-.328 2.057l.627 7.57a1.06 1.06 0 0 0 1.05.967h5.738c.544 0 1.006-.425 1.051-.967l.627-7.57a1.056 1.056 0 0 0-.328-2.057Zm-5.976-.351c0-.194.157-.352.351-.352H8.68c.194 0 .351.158.351.352v.351H5.516v-.351Zm4.976 9.92a.354.354 0 0 1-.35.322H4.405a.354.354 0 0 1-.35-.322l-.618-7.46h7.673l-.618 7.46Zm1-8.162H3.055a.352.352 0 0 1 0-.704h8.437a.352.352 0 0 1 0 .704Z"/><path fill="#37352f" d="M5.993 12.22 5.64 6.55a.352.352 0 0 0-.702.043l.352 5.672a.352.352 0 0 0 .702-.043ZM7.4 6.219a.352.352 0 0 0-.352.351v5.672a.352.352 0 0 0 .703 0V6.57a.352.352 0 0 0-.352-.351ZM9.53 6.22a.352.352 0 0 0-.372.329l-.352 5.671a.352.352 0 0 0 .702.044l.352-5.672a.352.352 0 0 0-.33-.373Z"/></svg>
